actions/16/media-skip-backward.svg

<?xml version="1.0" encoding="UTF-8" standalone="no"?>
<!-- Created with Inkscape (http://www.inkscape.org/) -->

<svg
   xmlns:dc="http://purl.org/dc/elements/1.1/"
   xmlns:cc="http://creativecommons.org/ns#"
   xmlns:rdf="http://www.w3.org/1999/02/22-rdf-syntax-ns#"
   xmlns:svg="http://www.w3.org/2000/svg"
   xmlns="http://www.w3.org/2000/svg"
   xmlns:xlink="http://www.w3.org/1999/xlink"
   xmlns:inkscape="http://www.inkscape.org/namespaces/inkscape"
   version="1.1"
   width="16"
   height="16"
   id="svg2415">
  <metadata
     id="metadata27665">
    <rdf:RDF>
      <cc:Work
         rdf:about="">
        <dc:format>image/svg+xml</dc:format>
        <dc:type
           rdf:resource="http://purl.org/dc/dcmitype/StillImage" />
        <dc:title />
      </cc:Work>
    </rdf:RDF>
  </metadata>
  <defs
     id="defs2417">
    <linearGradient
       id="linearGradient3818">
      <stop
         id="stop3820"
         style="stop-color:#737373;stop-opacity:1"
         offset="0" />
      <stop
         id="stop3822"
         style="stop-color:#636363;stop-opacity:1"
         offset="0.27486378" />
      <stop
         id="stop3824"
         style="stop-color:#4b4b4b;stop-opacity:1"
         offset="0.704952" />
      <stop
         id="stop3826"
         style="stop-color:#3f3f3f;stop-opacity:1"
         offset="1" />
    </linearGradient>
    <linearGradient
       id="linearGradient3703">
      <stop
         id="stop3705"
         style="stop-color:#ffffff;stop-opacity:1"
         offset="0" />
      <stop
         id="stop3707"
         style="stop-color:#ffffff;stop-opacity:0"
         offset="1" />
    </linearGradient>
    <linearGradient
       x1="3"
       y1="7"
       x2="1"
       y2="13"
       id="linearGradient3689"
       xlink:href="#linearGradient5106"
       gradientUnits="userSpaceOnUse"
       gradientTransform="matrix(-1,0,0,0.79985728,16,1.7015574)" />
    <linearGradient
       x1="4.5"
       y1="-14.5"
       x2="14"
       y2="-14"
       id="linearGradient3693"
       xlink:href="#linearGradient5106"
       gradientUnits="userSpaceOnUse"
       gradientTransform="matrix(0.8,0,0,1,2.1,16.5)" />
    <linearGradient
       x1="14.977528"
       y1="5.9682674"
       x2="15.138577"
       y2="15.736058"
       id="linearGradient3709"
       xlink:href="#linearGradient3703"
       gradientUnits="userSpaceOnUse"
       gradientTransform="matrix(-1,0,0,0.69003172,16,2.9602992)" />
    <linearGradient
       x1="10"
       y1="7"
       x2="7"
       y2="13"
       id="linearGradient3713"
       xlink:href="#linearGradient5106"
       gradientUnits="userSpaceOnUse"
       gradientTransform="matrix(-1,0,0,-0.78839522,16,15.115568)" />
    <linearGradient
       x1="8"
       y1="4"
       x2="8"
       y2="13"
       id="linearGradient3721"
       xlink:href="#linearGradient3703"
       gradientUnits="userSpaceOnUse"
       gradientTransform="matrix(-1,0,0,0.67341795,16,2.7759472)" />
    <linearGradient
       x1="8"
       y1="4"
       x2="8"
       y2="13"
       id="linearGradient3725"
       xlink:href="#linearGradient3703"
       gradientUnits="userSpaceOnUse"
       gradientTransform="matrix(-1,0,0,0.67341791,22,2.7759477)" />
    <linearGradient
       id="linearGradient5106">
      <stop
         id="stop5108"
         style="stop-color:#729fcf;stop-opacity:1"
         offset="0" />
      <stop
         id="stop5110"
         style="stop-color:#386ea6;stop-opacity:1"
         offset="1" />
    </linearGradient>
    <radialGradient
       cx="16.202444"
       cy="-19.005346"
       r="19.99999"
       fx="16.202444"
       fy="-19.005346"
       id="radialGradient3008-6"
       xlink:href="#linearGradient2867-449-88-871-390-598-476-591-434-148-57-177-641-289-620-227-114-444-680-744-4-1"
       gradientUnits="userSpaceOnUse"
       gradientTransform="matrix(0,1.5000006,-1.5241254,0,-16.959842,-23.077676)" />
    <linearGradient
       id="linearGradient2867-449-88-871-390-598-476-591-434-148-57-177-641-289-620-227-114-444-680-744-4-1">
      <stop
         id="stop5430-5-0"
         style="stop-color:#737373;stop-opacity:1"
         offset="0" />
      <stop
         id="stop5432-2-0"
         style="stop-color:#636363;stop-opacity:1"
         offset="0.26238" />
      <stop
         id="stop5434-9-6"
         style="stop-color:#4b4b4b;stop-opacity:1"
         offset="0.704952" />
      <stop
         id="stop5436-2-7"
         style="stop-color:#3f3f3f;stop-opacity:1"
         offset="1" />
    </linearGradient>
    <radialGradient
       cx="16.202444"
       cy="-19.005346"
       r="19.99999"
       fx="16.202444"
       fy="-19.005346"
       id="radialGradient3031"
       xlink:href="#linearGradient2867-449-88-871-390-598-476-591-434-148-57-177-641-289-620-227-114-444-680-744-4-1"
       gradientUnits="userSpaceOnUse"
       gradientTransform="matrix(0,1.5000006,-1.5241254,0,-42.926041,-29.027051)" />
    <radialGradient
       cx="8.5"
       cy="-7.315474"
       r="7.5026579"
       fx="8.5"
       fy="-7.315474"
       id="radialGradient3808"
       xlink:href="#linearGradient3818"
       gradientUnits="userSpaceOnUse"
       gradientTransform="matrix(3.3777527e-7,2.7651492,-2.8953878,3.536845e-7,-12.681137,-24.49529)" />
    <radialGradient
       cx="8.5"
       cy="-7.3154736"
       r="7.5026579"
       fx="8.5"
       fy="-7.3154736"
       id="radialGradient3816"
       xlink:href="#linearGradient2867-449-88-871-390-598-476-591-434-148-57-177-641-289-620-227-114-444-680-744-4-1"
       gradientUnits="userSpaceOnUse"
       gradientTransform="matrix(2.7214008e-7,2.7651492,-2.8953878,8.7589268e-8,-12.681135,-24.495291)" />
  </defs>
  <path
     d="m 1.5,4.5 0,8 2,0 0,-3.4375 6,3.4375 0,-0.15625 0,-3.28125 6,3.4375 0,-8 -6,3.4375 0,-3.4375 -6,3.4375 0,-3.4375 -2,0 z"
     inkscape:connector-curvature="0"
     id="path3036"
     style="fill:url(#radialGradient3808);fill-opacity:1;fill-rule:nonzero;stroke:url(#radialGradient3816);stroke-width:1.0053153;stroke-linecap:butt;stroke-linejoin:round;stroke-miterlimit:4;stroke-opacity:1;stroke-dasharray:none;stroke-dashoffset:0;marker:none;visibility:visible;display:block;overflow:visible;enable-background:accumulate" />
  <path
     d="m 1.5,4.5 0,8 2,0 0,-3.4375 6,3.4375 0,-0.15625 0,-3.28125 6,3.4375 0,-8 -6,3.4375 0,-3.4375 -6,3.4375 0,-3.4375 -2,0 z"
     inkscape:connector-curvature="0"
     id="path5566"
     style="opacity:0.1;fill:none;stroke:#000000;stroke-width:1.0053153;stroke-linecap:butt;stroke-linejoin:round;stroke-miterlimit:4;stroke-opacity:1;stroke-dasharray:none;stroke-dashoffset:0;marker:none;visibility:visible;display:block;overflow:visible;enable-background:accumulate" />
  <path
     d="m 2.5,5.3754099 0,6.2181811"
     inkscape:connector-curvature="0"
     id="rect5598"
     style="opacity:0.02999998;fill:none;stroke:#000000;stroke-width:0.94197685;stroke-linecap:square;stroke-linejoin:miter;stroke-miterlimit:4;stroke-opacity:1;stroke-dasharray:none;stroke-dashoffset:0;marker:none;visibility:visible;display:block;overflow:visible;enable-background:accumulate" />
  <path
     d="M 8.5,6.4376573 8.5,10.562342 4.21875,8.4999998 8.5,6.4376573 z"
     inkscape:connector-curvature="0"
     id="path3711"
     style="opacity:0.02999998;fill:none;stroke:#000000;stroke-width:1.0053153;stroke-linecap:butt;stroke-linejoin:round;stroke-miterlimit:4;stroke-opacity:1;stroke-dasharray:none;stroke-dashoffset:0;marker:none;visibility:visible;display:block;overflow:visible;enable-background:accumulate" />
  <path
     d="m 14.5,6.4376576 0,4.1246844 L 10.21875,8.5 14.5,6.4376576 z"
     inkscape:connector-curvature="0"
     id="path3723"
     style="opacity:0.02999998;fill:none;stroke:#000000;stroke-width:1.0053153;stroke-linecap:butt;stroke-linejoin:round;stroke-miterlimit:4;stroke-opacity:1;stroke-dasharray:none;stroke-dashoffset:0;marker:none;visibility:visible;display:block;overflow:visible;enable-background:accumulate" />
</svg>

<?xml version="1.0" encoding="UTF-8" standalone="no"?>
<!-- Created with Inkscape (http://www.inkscape.org/) -->

<svg
   xmlns:dc="http://purl.org/dc/elements/1.1/"
   xmlns:cc="http://creativecommons.org/ns#"
   xmlns:rdf="http://www.w3.org/1999/02/22-rdf-syntax-ns#"
   xmlns:svg="http://www.w3.org/2000/svg"
   xmlns="http://www.w3.org/2000/svg"
   xmlns:xlink="http://www.w3.org/1999/xlink"
   xmlns:sodipodi="http://sodipodi.sourceforge.net/DTD/sodipodi-0.dtd"
   xmlns:inkscape="http://www.inkscape.org/namespaces/inkscape"
   version="1.1"
   width="16"
   height="16"
   id="svg2415"
   inkscape:version="0.48.4 r9939"
   sodipodi:docname="media-skip-backward.svg">
  <metadata
     id="metadata27665">
    <rdf:RDF>
      <cc:Work
         rdf:about="">
        <dc:format>image/svg+xml</dc:format>
        <dc:type
           rdf:resource="http://purl.org/dc/dcmitype/StillImage" />
        <dc:title></dc:title>
      </cc:Work>
    </rdf:RDF>
  </metadata>
  <sodipodi:namedview
     pagecolor="#ffffff"
     bordercolor="#666666"
     borderopacity="1"
     objecttolerance="10"
     gridtolerance="10"
     guidetolerance="10"
     inkscape:pageopacity="0"
     inkscape:pageshadow="2"
     inkscape:window-width="1280"
     inkscape:window-height="751"
     id="namedview27663"
     showgrid="false"
     inkscape:zoom="14.75"
     inkscape:cx="-6.6811071"
     inkscape:cy="8"
     inkscape:window-x="0"
     inkscape:window-y="25"
     inkscape:window-maximized="1"
     inkscape:current-layer="svg2415" />
  <defs
     id="defs2417">
    <linearGradient
       id="linearGradient3818">
      <stop
         offset="0"
         style="stop-color:#737373;stop-opacity:1"
         id="stop3820" />
      <stop
         offset="0.27486378"
         style="stop-color:#636363;stop-opacity:1"
         id="stop3822" />
      <stop
         offset="0.704952"
         style="stop-color:#4b4b4b;stop-opacity:1"
         id="stop3824" />
      <stop
         offset="1"
         style="stop-color:#3f3f3f;stop-opacity:1"
         id="stop3826" />
    </linearGradient>
    <linearGradient
       id="linearGradient3703">
      <stop
         id="stop3705"
         style="stop-color:#ffffff;stop-opacity:1"
         offset="0" />
      <stop
         id="stop3707"
         style="stop-color:#ffffff;stop-opacity:0"
         offset="1" />
    </linearGradient>
    <linearGradient
       x1="3"
       y1="7"
       x2="1"
       y2="13"
       id="linearGradient3689"
       xlink:href="#linearGradient5106"
       gradientUnits="userSpaceOnUse"
       gradientTransform="matrix(-1,0,0,0.79985728,16,1.7015574)" />
    <linearGradient
       x1="4.5"
       y1="-14.5"
       x2="14"
       y2="-14"
       id="linearGradient3693"
       xlink:href="#linearGradient5106"
       gradientUnits="userSpaceOnUse"
       gradientTransform="matrix(0.8,0,0,1,2.1,16.5)" />
    <linearGradient
       x1="14.977528"
       y1="5.9682674"
       x2="15.138577"
       y2="15.736058"
       id="linearGradient3709"
       xlink:href="#linearGradient3703"
       gradientUnits="userSpaceOnUse"
       gradientTransform="matrix(-1,0,0,0.69003172,16,2.9602992)" />
    <linearGradient
       x1="10"
       y1="7"
       x2="7"
       y2="13"
       id="linearGradient3713"
       xlink:href="#linearGradient5106"
       gradientUnits="userSpaceOnUse"
       gradientTransform="matrix(-1,0,0,-0.78839522,16,15.115568)" />
    <linearGradient
       x1="8"
       y1="4"
       x2="8"
       y2="13"
       id="linearGradient3721"
       xlink:href="#linearGradient3703"
       gradientUnits="userSpaceOnUse"
       gradientTransform="matrix(-1,0,0,0.67341795,16,2.7759472)" />
    <linearGradient
       x1="8"
       y1="4"
       x2="8"
       y2="13"
       id="linearGradient3725"
       xlink:href="#linearGradient3703"
       gradientUnits="userSpaceOnUse"
       gradientTransform="matrix(-1,0,0,0.67341791,22,2.7759477)" />
    <linearGradient
       id="linearGradient5106">
      <stop
         id="stop5108"
         style="stop-color:#729fcf;stop-opacity:1"
         offset="0" />
      <stop
         id="stop5110"
         style="stop-color:#386ea6;stop-opacity:1"
         offset="1" />
    </linearGradient>
    <radialGradient
       cx="16.202444"
       cy="-19.005346"
       r="19.99999"
       fx="16.202444"
       fy="-19.005346"
       id="radialGradient3008-6"
       xlink:href="#linearGradient2867-449-88-871-390-598-476-591-434-148-57-177-641-289-620-227-114-444-680-744-4-1"
       gradientUnits="userSpaceOnUse"
       gradientTransform="matrix(0,1.5000006,-1.5241254,0,-16.959842,-23.077676)" />
    <linearGradient
       id="linearGradient2867-449-88-871-390-598-476-591-434-148-57-177-641-289-620-227-114-444-680-744-4-1">
      <stop
         id="stop5430-5-0"
         style="stop-color:#737373;stop-opacity:1"
         offset="0" />
      <stop
         id="stop5432-2-0"
         style="stop-color:#636363;stop-opacity:1"
         offset="0.26238" />
      <stop
         id="stop5434-9-6"
         style="stop-color:#4b4b4b;stop-opacity:1"
         offset="0.704952" />
      <stop
         id="stop5436-2-7"
         style="stop-color:#3f3f3f;stop-opacity:1"
         offset="1" />
    </linearGradient>
    <radialGradient
       inkscape:collect="always"
       xlink:href="#linearGradient2867-449-88-871-390-598-476-591-434-148-57-177-641-289-620-227-114-444-680-744-4-1"
       id="radialGradient3031"
       gradientUnits="userSpaceOnUse"
       gradientTransform="matrix(0,1.5000006,-1.5241254,0,-42.926041,-29.027051)"
       cx="16.202444"
       cy="-19.005346"
       fx="16.202444"
       fy="-19.005346"
       r="19.99999" />
    <radialGradient
       inkscape:collect="always"
       xlink:href="#linearGradient3818"
       id="radialGradient3808"
       cx="8.5"
       cy="-7.315474"
       fx="8.5"
       fy="-7.315474"
       r="7.5026579"
       gradientTransform="matrix(3.3777527e-7,2.7651492,-2.8953878,3.536845e-7,-12.681137,-24.49529)"
       gradientUnits="userSpaceOnUse" />
    <radialGradient
       inkscape:collect="always"
       xlink:href="#linearGradient2867-449-88-871-390-598-476-591-434-148-57-177-641-289-620-227-114-444-680-744-4-1"
       id="radialGradient3816"
       cx="8.5"
       cy="-7.3154736"
       fx="8.5"
       fy="-7.3154736"
       r="7.5026579"
       gradientTransform="matrix(2.7214008e-7,2.7651492,-2.8953878,8.7589268e-8,-12.681135,-24.495291)"
       gradientUnits="userSpaceOnUse" />
  </defs>
  <path
     id="path3036"
     d="M 1.5 4.5 L 1.5 12.5 L 3.5 12.5 L 3.5 9.0625 L 9.5 12.5 L 9.5 12.34375 L 9.5 9.0625 L 15.5 12.5 L 15.5 4.5 L 9.5 7.9375 L 9.5 4.5 L 3.5 7.9375 L 3.5 4.5 L 1.5 4.5 z "
     style="fill:url(#radialGradient3808);fill-opacity:1;fill-rule:nonzero;stroke:url(#radialGradient3816);stroke-width:1.00531529999999991;stroke-linecap:butt;stroke-linejoin:round;stroke-miterlimit:4;stroke-opacity:1;stroke-dasharray:none;stroke-dashoffset:0;marker:none;visibility:visible;display:block;overflow:visible;enable-background:accumulate" />
  <path
     style="fill:none;fill-opacity:1;fill-rule:nonzero;stroke:#000000;stroke-width:1.00531529999999991;stroke-linecap:butt;stroke-linejoin:round;stroke-miterlimit:4;stroke-opacity:1;stroke-dasharray:none;stroke-dashoffset:0;marker:none;visibility:visible;display:block;overflow:visible;enable-background:accumulate;opacity:0.1"
     d="M 1.5 4.5 L 1.5 12.5 L 3.5 12.5 L 3.5 9.0625 L 9.5 12.5 L 9.5 12.34375 L 9.5 9.0625 L 15.5 12.5 L 15.5 4.5 L 9.5 7.9375 L 9.5 4.5 L 3.5 7.9375 L 3.5 4.5 L 1.5 4.5 z "
     id="path5566" />
  <path
     d="m 2.5,5.3754099 0,6.2181811"
     id="rect5598"
     style="opacity:0.03000000000000000;fill:none;stroke:#000000;stroke-width:0.94197684999999998;stroke-linecap:square;stroke-linejoin:miter;stroke-miterlimit:4;stroke-opacity:1;stroke-dasharray:none;stroke-dashoffset:0;marker:none;visibility:visible;display:block;overflow:visible;enable-background:accumulate"
     inkscape:connector-curvature="0" />
  <path
     d="M 8.5,6.4376573 8.5,10.562342 4.21875,8.4999998 8.5,6.4376573 z"
     id="path3711"
     style="opacity:0.03;fill:none;stroke:#000000;stroke-width:1.00531529999999991;stroke-linecap:butt;stroke-linejoin:round;stroke-miterlimit:4;stroke-opacity:1;stroke-dasharray:none;stroke-dashoffset:0;marker:none;visibility:visible;display:block;overflow:visible;enable-background:accumulate"
     inkscape:connector-curvature="0" />
  <path
     d="m 14.5,6.4376576 0,4.1246844 L 10.21875,8.5 14.5,6.4376576 z"
     id="path3723"
     style="opacity:0.03000000000000000;fill:none;stroke:#000000;stroke-width:1.00531529999999991;stroke-linecap:butt;stroke-linejoin:round;stroke-miterlimit:4;stroke-opacity:1;stroke-dasharray:none;stroke-dashoffset:0;marker:none;visibility:visible;display:block;overflow:visible;enable-background:accumulate"
     inkscape:connector-curvature="0" />
</svg>
